!!!OTL: Unter der Linde
!!!ARE: Europa, Mitteleuropa, Deutschland
!!!SCT: A0040
!!!YEM: Copyright 1995, estate of Helmut Schaffrath.
**kern
*ICvox
*Ivox
*M3/2
*k[f#c#]
*D:
{2d
=1
1d
2d
=2
2a
2a
2a
=3
2b
2b
2b
=4
1a}
{2a
=5
1b
2a
=6
1dd
2a
=7
1ccn
2b
=8
1a}
{2ccn
=9
2.b
4ccn
2dd
=10
2.ccn
4b
2a
=11
2g
2e
2fn
=12
1d}
{2a
=13
1a
2ccn
=14
2a
2a
2d
=15
2fn
1e
=16
1d}
==
!!!AGN: Romanze, Ballade, Lied
!! Melodie (von Boehme zum Text gesetzt): Souterliedekens 1544
!!    ad Ps. 63.
!!!ONB: ESAC (Essen Associative Code) Database: ALTDEU
!!!AMT: simple triple
!!!AIN: vox
!!!EED: Helmut Schaffrath
!!!EEV: 1.0
*-
